X: 15383
T: Glass Case Of Emotion, The
R: reel
M: 4/4
K: Bminor
|:fede fBaB|abBf fedc|dcG2 dcAd|cAcd edce|
fede fBaB|abBf bfdB|gBfg BfgB|1 acea agfe:|2 eAde cAEc||
|:BABd f4-|fede fedc|BABf ~e3G|e2.ad cdcA|
BABA ~F3D|~E3D FEFA|c~F3 cFBc|1 d~G3 cAec:|2 d~G3 eAAe||

